src/images/icons/product-menu.svg

<?xml version="1.0" encoding="utf-8"?>
<!-- Generated by IcoMoon.io -->
<!DOCTYPE svg PUBLIC "-//W3C//DTD SVG 1.1//EN" "http://www.w3.org/Graphics/SVG/1.1/DTD/svg11.dtd">
<svg version="1.1" xmlns="http://www.w3.org/2000/svg" xmlns:xlink="http://www.w3.org/1999/xlink" width="512" height="512" viewBox="0 0 512 512">
<path d="M480 64.001h-160c-17.664 0-32-14.336-32-32v0c0-17.664 14.336-32 32-32h160c17.664 0 32 14.336 32 32v0c0 17.664-14.336 32-32 32z"></path>
<path d="M480 288h-160c-17.664 0-32-14.336-32-32v0c0-17.664 14.336-32 32-32h160c17.664 0 32 14.336 32 32v0c0 17.664-14.336 32-32 32z"></path>
<path d="M480 512h-160c-17.664 0-32-14.336-32-32v0c0-17.664 14.336-32 32-32h160c17.664 0 32 14.336 32 32v0c0 17.664-14.336 32-32 32z"></path>
<path d="M176.018 512h-128c-26.478 0-48.018-21.541-48.018-47.982v-416.036c0-26.441 21.541-47.982 48.018-47.982h128c26.478 0 47.982 21.541 47.982 47.982v415.999c0 26.478-21.541 48.018-47.982 48.018zM64.001 448h96v-384h-96v384z"></path>
</svg>

<?xml version="1.0" encoding="utf-8"?>
<!-- Generator: Adobe Illustrator 19.2.1, SVG Export Plug-In . SVG Version: 6.00 Build 0)  -->
<svg version="1.1" id="Layer_1" xmlns="http://www.w3.org/2000/svg" xmlns:xlink="http://www.w3.org/1999/xlink" x="0px" y="0px"
	 viewBox="0 0 512 512" style="enable-background:new 0 0 512 512;" xml:space="preserve">
<path class="lexicon-icon-body" fill="none" d="M176,512H48c-26.5,0-48-21.5-48-48V48C0,21.5,21.5,0,48,0h128c26.5,0,48,21.5,48,48v416
	C224,490.5,202.5,512,176,512L176,512z"/>
<path class="lexicon-icon-outline" d="M176,512H48c-26.5,0-48-21.5-48-48V48C0,21.5,21.5,0,48,0h128c26.5,0,48,21.5,48,48v416C224,490.5,202.5,512,176,512
	L176,512z M64,448h96V64H64C64,64,64,448,64,448z"/>
<path class="lexicon-icon-outline" d="M480,64H320c-17.7,0-32-14.3-32-32l0,0c0-17.7,14.3-32,32-32h160c17.7,0,32,14.3,32,32l0,0C512,49.7,497.7,64,480,64z"/>
<path class="lexicon-icon-outline" d="M480,288H320c-17.7,0-32-14.3-32-32l0,0c0-17.7,14.3-32,32-32h160c17.7,0,32,14.3,32,32l0,0C512,273.7,497.7,288,480,288z"
	/>
<path class="lexicon-icon-outline" d="M480,512H320c-17.7,0-32-14.3-32-32l0,0c0-17.7,14.3-32,32-32h160c17.7,0,32,14.3,32,32l0,0C512,497.7,497.7,512,480,512z"
	/>
</svg>
